X:1
T:Recorder Sonata No.10 in C-Dur from " 12 Recorder Sonata Op.4 "
T:Recorder Sonata No.10 in C-Dur
T:from " 12 Recorder Sonata Op.4 " Transcribed from IMSLP324916 PDF File
T:Jean Baptiste Loeillet de Gant (1688 — ca.1720)
T:Public Domain
T:Public Domain
T:Public Domain
T:Public Domain
T:Public Domain
T:Public Domain
T:Public Domain
C:Jean Baptiste Loeillet de Gant (1688 — ca.1720)
Z:ADAGIO
Z:Public Domain
%%score [ 1 2 ] { ( 3 4 ) | 5 }
L:1/8
Q:1/4=60
M:4/4
K:C
V:1 treble nm="Alto Recorder" snm="A. Rec."
V:2 bass nm="Fagotto" snm="Bsn."
V:3 treble nm="Harpsichord" snm="Hch."
V:4 treble 
V:5 bass 
V:1
"^1. Adagio" Pg2- ga/g/ gf Pe>d | ec ef/g/ dg PcB/c/ | BG{ef} g2- gPf/e/ f2- | %3
w: |||
w: |||
 fPe/d/ ea/g/ f/e/d/c/ Pg2- | ga/d/ Td>c ce (ab/c'/) | Pfd d'2- d'Pc'/b/ c'2- | %6
w: |||
w: |||
 c'Pb/a/ b2- bc'/b/ a/g/^f/e/ | ^fd Mg2- ga/g/ Tf>g | g2 z2 c'b Ta>^g | ab/c'/ Pb>a ^ge{^fg} a>e | %10
w: ||||
w: ||||
 P=f2- f/a/g/f/ ec e/g/f/e/ | Pd2- d/f/e/d/ cA (Pf2 | f)e/d/ ee ab/c'/ Pb>a | %13
w: |||
w: |||
 ^ge Ma/=g/f/e/ f/e/d/c/ TB>A | A2 de/^f/ B2 Mg2- | g/c/d/e/ M=f2- fg/f/ Pe>d | %16
w: |||
w: |||
 ea/g/ f/e/d/c/ TBG g2- | gc' Pfe/d/ e(f/g/) a(b/c'/) | Pbg c'/b/a/g/ ab/c'/ Td>c | %19
w: |||
w: |||
 ce Pa2- a/d/e/f/ Pg2- | g/c/d/e/ Pf2- f/B/c/d/ Pe2- | ef/e/ d/e/d/c/ PBG c2- | c/f/e/d/ Td>c c4 |] %23
w: ||||
w: ||||
[M:2/2][Q:1/2=60]"^2. Allegro" z2!f! e2 f2 g2 | c2 c'4 b2 | Tc'2 z g a/g/f/e/ Pd>c | %26
w: |||
w: |||
 c2 e/g/f/e/ de/^f/ g2- | g2 ^f2 g2 bc'/b/ | ab/c'/ d'c' bg c'2- | c'2 b2 Tc'2 z g | %30
w: ||||
w: ||||
 a/g/f/e/ d/e/f/g/ e/f/e/d/ c/!p!g/f/g/ | a/g/f/e/ d/g/a/b/ c'c z!f! e | ^fd d'2- d'c'/b/ Ta>g | %33
w: |||
w: . * * * * * * * * * * * * * * *|||
 g2 B2 c2 d2 | G2 g4 ^f2 | Tg2 z/ d/c/d/ B/d/c/d/ A/d/c/d/ | %36
w: |||
w: |||
 B/c/B/A/ G/!p!d/c/d/ B/d/c/d/ A/d/c/d/ | B/c/B/A/!f! G/g/f/g/ e/g/f/g/ d/g/f/g/ | %38
w: ||
w: ||
 e/f/e/d/ c/!p!g/f/g/ e/g/f/g/ d/g/f/g/ | e/f/e/d/ c/!f!c'/b/c'/ a/c'/b/c'/ d'/c'/b/a/ | %40
w: ||
w: ||
 ^g/a/g/^f/ e/e/f/g/ aebe | c'ebe ae^ge | aebe c'/b/c'/b/ a/b/c'/a/ | %43
w: |||
w: |||
 d'/e'/d'/c'/ b/c'/b/a/ ^ge a2- | a2 ^g2 Ta2 z e | f/e/d/c/ PB>A A2 c2 | d2 e2 A2 a2 | %47
w: ||||
w: ||||
 d2 g2- gf/e/ Pd>c | c2 e2- e^f/g/ f>e | ^d2 b2- ba/g/ M^f>e | e2 z/ b/a/b/ g/b/a/b/ ^f/b/a/b/ | %51
w: ||||
w: ||||
 g/a/g/^f/!p! e/b/a/b/ g/b/a/b/ f/b/a/b/ | g/a/g/^f/!f! e/b/a/b/ c'/b/a/g/ f>e | e2!p! e2 =f2 g2 | %54
w: |||
w: |||
 c2 c'4 b2 | Tc'2 z!f! g a/g/f/e/ de/f/ | ec e/g/f/e/ de/^f/ g2- | g2 ^f2 g2 bc'/b/!p! | %58
w: ||||
w: ||||
 ab/c'/ d'c' bg c'2- |!mf! c'2 b2 Tc'2 z/ g/f/g/ | e/g/f/g/ d/g/f/g/ e/f/e/d/ c/!p!g/f/g/ | %61
w: |||
w: |||
"^39" e/g/f/g/ d/g/f/g/ e/f/e/d/!f! c/e/f/g/ | acgc fcec |!p! acgc fcec |!f! fcgc acbc | %65
w: ||||
w: ||||
 c'b/a/ g/f/e/d/ e/g/c'/d/ Md>c | c2 e2 f2 g2 | c2 c'2- c'_b/a/ Pg>f | f2 a=b/c'/ bg c'2- | %69
w: ||||
w: ||||
 c'2 b2 Tc'2 z g | a/g/f/e/ Pd>c c2 z g | acbd c'2 z g | a/g/f/e/ Pd>c c2 c'2- | c'2 b2 Pc'4 |] %74
w: |||||
w: |||||
[M:4/4][Q:1/4=60]"^Adagio"!f! a2 bc' T^g3 (^f/e/) | a2 z e =f2 f=g | Te3 e (ab/c'/) Tb>a | %77
w: |||
w: |||
 ^g>b (Tba/b/) c'e f>=g | ee (a/g/f/e/) (de/f/) g2- | ga/d/ Td>c c2 e2- | ed Tc>B cA f2- | %81
w: ||||
w: ||||
 f2 e2 (ab/c'/) Tb>a | ^g8 |][M:4/4][Q:1/4=130]"^Vivace" z8 | z8 | z8 |!f! e2 g2 Pf2 B2 | %87
w: ||||||
w: ||||||
 c2 c'2 Pa2 d'2 | bg c'4 Tb2 | c'2 z2 z4 | z8 | z8 | e2 g2 Pf2 B2 | c2 c'2 Pa2 d'2 | bgc'g agPfe | %95
w: ||||||||
w: ||||||||
 de/f/ g2- gf/e/ f2- | fe/d/ ea T^fd d'2- | d'c'/b/ c'2- c'b/a/ b2- | bc'/b/ ag ^fd (g2 | %99
w: ||||
w: ||||
 g)a/g/ T^f>g g2 b2 | P^f2 c'2 g2 d'2 | Pe2 c'2 T^f2 g2- | g2 T^f2 g2 z2 |!p! c'2 g2 Pa2 c'2 | %104
w: |||||
w: |||||
 =f2 e2 d2 Pef | g2 g2 ccde | f2 ga B2 g2- | ga/g/ fe fg/f/ Te>d | ef Td>c c2 z2 | %109
w: |||||
w: |||||
!f! a2 d'2 bg c'2- | c'2 Tb2 c'2 !fermata!z2!fine! |: e2 a2 T^g4 | a2 (bc') b2 e2 | a2 e2 f4 | %114
w: |||||
w: |||||
 =g2 d2 e4 | f2 c2 d2 f2 | Pe3 d c2 A2 | a2 (bc') b2 e2 |!p! a2 (bc') b2 e2 |!f! a2 e2 fgfe | %120
w: ||||||
w: ||||||
 dabc' ^g2 e2 | a2 (bc') d'2 c'b | Tb3 a a4 | d'c'ba Tb3 c' | (c'bag) (agfe) |!p! (c'bag) (agfe) | %126
w: ||||||
w: ||||||
!f! (c'bag) (agfe) | d4 g2 c'2 | f3 g f2 Med | e2 fg a2 bc' | dfMed Td3 c | c2 e2 ag^fe | %132
w: ||||||
w: ||||||
 ^d2 ^f2 (bagf) | (g^fef) (bagf) | (g^fe)b c'f Tf>e | e4 z4!D.C.! :| %136
w: ||||
w: ||||
V:2
 C,D,E,F, E,D,C,G,, | C,2 z C B,2 A,2 | G,=F,E,C, A,2 z D, | G,2 C,2 z F, E,/D,/C,/B,,/ | %4
 A,,F,G,G,, C,2 z C | CD/C/ B,G, E2 z A, | D2 z G, C2 z A, | DCB,G, ECDD, | G,=F,TE,>D, E,2 z C, | %9
 F,2 z D, E,E/D/ CA, | D,D/C/ B,G, C2 z A, | B,A,^G,E, A,2 z A, | ^G,2 =G,2 ^F,2 =F,2 | %13
 E,D,C,A,, D,B,,E,E,, | A,,A,/^G,/ ^F,D, =G,=F,E,C, | A,2- A,/D,/E,/F,/ G,2 z G,, | %16
 C,2 z F, G,2 z E, | A,2 B,2 C2 F,2- | F,2 E,C, F,D,G,G,, | C,2 z C B,2- B,/E,/F,/G,/ | %20
 A,2- A,/D,/E,/F,/ G,2- G,/C,/D,/E,/ | F,2 z F, G,F,E,C, | F,D,G,G,, C,4 |][M:2/2][K:treble] z8 | %24
 z E/D/ EC FDGG, | C2[K:bass] E,2 F,2 G,2 | C,2 C4 B,2 | C2 D2 G,2 G2- | G2 =F4 E2 | F2 G2 C2 E,2 | %30
 F,2 G,2 C,2 E,2 | F,2 G,2 C,2 C2- | C2 B,2 C2 D2 | G,2 z2 z4 | z B,/A,/ B,G, CA,DD, | G,2 G4 ^F2 | %36
 G2 G,4 ^F,2 | G,2 C4 B,2 | C2 C,4 B,,2 | C,4 F,2 D,2 | E,4 C2 ^G,2 | A,2 =G,2 F,2 E,2 | %42
 C2 ^G,2 A,2 z A, | D2 z D EDCA, | DB,EE, A,2 C,2 | D,2 E,2 A,,2 A,2- | A,2 =G,4 F,2- | %47
 F,2 E,2 F,2 G,2 | C,2 z2 A,,2 A,2- | A,G,/^F,/ G,E, A,F,B,B,, | E,2 E4 ^D2 | E2 E,4 ^D,2 | %52
 E,2 G,2 A,2 B,2 | E,4 z4 |[K:treble] z E/D/ EC FDGG, | C2[K:bass] E,2 F,2 G,2 | C,2 C4 B,2 | %57
 C2 D2 G,2 G2- | G2 =F4 E2 | F2 G2 C2 (C,2 | C,2) B,,2 C,2 C2- | C2 B,2 C2 C,2 | F,2 E,2 D,2 C,2 | %63
 F,2 E,2 D,2 C,2 | D,2 E,2 F,2 G,2 | A,2 B,2 CF,G,G,, | C,2 C4 _B,2- | B,2 A,2 _B,2 C2 | %68
 F,2 F4 E2 | F2 G2 C2 E,2 | F,2 G,2 A,2 E,2 | F,2 G,2 A,2 E,2 | F,C,G,C, A,C,E,C, | %73
 F,D,G,G,, C,4 |][M:4/4] A,8 | A,4 B,4 | C4 F,4 | E,4 A,2 B,2 | C2 F,2 G,2 z E, | %79
 A,F,G,G,, C,2 z A, | ^G,2 z G, A,2 z A, | ^G,2 =G,2 F,2 D,2 | E,8 |][M:4/4] CC,CC, DD,DD, | %84
 EE,EE,[K:treble] FE/F/ DE/F/ | GF/G/ EF/G/ AFGG, |[K:bass] CC,CC, DD,DD, | %87
 EE,EE,[K:treble] FE/F/ DE/F/ | GF/G/ EF/G/ AFGG, |[K:bass] CC,CC, DD,DD, | %90
 EE,EE,[K:treble] FE/F/ DE/F/ | GF/G/ EF/G/ AFGG, |[K:bass] CC,CC, DD,DD, | %93
 EE,EE,[K:treble] FE/F/ DE/F/ | G>FE>C F>ED>C | G2 z E AA, z D | GG,[K:bass] CC,DD, z B, | %97
 EE, z A, DD,G,G,, | CC, z C DCB,G, | ECDD, G,G,,G,G,, | A,A,,A,A,, B,B,,B,B,, | %101
 CB,/C/ A,B,/C/ DC/D/ B,C/D/ | ECDD, G,G,/A,/ G,=F, | E,D,E,C, F,G,F,E, | D,E,D,C, B,,B,,C,D, | %105
 E,E,F,G, A,>A,,B,,>^C, | D,D,E,F, G,F,E,=C, | A,2 z A, B,2 z B, | CF,G,G,, CC,DD, | %109
 EE,F(F, B,,)A,,/B,,/ G,,A,,/B,,/ | C,A,,B,,B,,,!p! !fermata!E,,4 |: A,A,,A,A,, B,B,,B,B,, | %112
 CC,DD, EE,DD, | CC,CC, DD,CC, | B,B,,B,B,, CC,B,B,, | A,A,,A,A,, B,B,,A,A,, | %116
 ^G,^G,,G,G,, A,2 A,,2 | CC,DD, EE,DD, | CC,DD, EE,DD, | CC,CC, D2 z2 | D,4 EE,DD, | %121
 CC, z2 B,B,,CD | EDEE, A,A,,=G,=G,, | ^F,2 D,2 G,G,,=F,=F,, | E,2 C,2 F,4 | E,2 C,2 F,4 | %126
 E,2 C,2 F,>E,D,>C, | G,G,,F,F,, E,D,E,C, | D,E,D,C, B,,2 G,,2 | C,2 D,E, (F,4 | F,4) G,2 G,,2 | %131
 C,2 C4 A,2 | B,B,,A,A,, G,2 B,2 | E4 ^D2 B,2 | E4 A,2 B,2 | E,4 z4 :| %136
V:3
 cB c2 [Gc][FB][EGc][FB] | [EGc]2 z [EG] [DG]2 [C^F]2 | [B,DG]2 GE G=F z F | %3
 FE [CEG]2 z [CA] [CG]2 | [C-G]2 [CD][B,F] [G,CE]2 z [EAe] | [^FAd]2 dd dc z E | cB z B BA z c | %7
 A2 GB GA A2 | [B,DG]2 [CG]>[D=FB] [CGc]2 z [Gce] | [Acf]2 z [ABf] [^GBe]2 [EAe][EAc] | %10
 [FAd]2 [F=Gd][FGB] [EGc]2 z [CEF] | [DF]2 [DEB][DE^G] [CEA]2 z [Fc] | %12
 [FBd]2 [EBe]2 [EAc]2 [DAd]2 | [E^GB]2 A4 [EA][DG] | [CEA]2 [DAc]2 [D=GB]2 c2 | c4 [FB]2 z [DGB] | %16
 [EGc]2 z [DAc] [DGB]2 z [Gc] | c2 [FGd]2 [EGc]2 [DAc]2 | [DGB]2 c2 cd cB | c2 z e d4 | c4 B4 | %21
 A2 z [DAd] [DGB]2 [CGc][EGc] | cd cB c4 |][M:2/2] z8 | z!f! c/B/ ce cf d2 | %25
 [EGc]2 [Gce]2 [Ae]2 [FBd]2 | [EGc]2 [EGc]2 [^FAd]2 [DGd]2 | [EGc]2 [^FA]2 [DGB]2 [Bd]2 | %28
 e2 d2- [GBd]2 [Gc]2 | [Acd]2 [Bd]2 [Gce]2 [Gc]2 | [FAc]2 [DGB]2 [EGc]2!p! [EGc]2 | %31
 [EAc]2 [DFB]2 [EGc]2!f! [EGc]2 | [^FAd]2 [DGd]2 [EGc]2 [FA]2 | [DGB]2 z2 z4 | %34
 z d/c/ dB [EGA]2 [D^FA]2 | [B,DG]2 [Bd]4 A2 | d2!p! [DB]4 A2 | B2!f! [Ge]4 d2 | e2!p! [EG]4 (G2 | %39
 G2)!f! [EG]2 [CFA]2 [B,FB]2 | [B,E^G]4 [EA]2 [EBe]2 | [EAc]2 [EBe]2 [Ae]2 [^GBe]2 | %42
 [EA]2 [EB]2 [EAc]2 z [Ace] | [Adf]2 z [ABf] [^GBe]2 ec | fd B2 A2 [EA]2 | %45
 [DFA]2 [B,E^G]2 [CEA]2 [CEc]2 | [DFB]2 [EB]2 [CEA]2 [DA]2 | [DGB]2 [EGc]2 [EAc]2 [DFB]2 | %48
 [EGc]2 z2 [EAc]2 [E^Fc]2 | [^D^FB]2 BG BA [B,F]2 | [B,EG]2 [GB]4 [^FB]2 | [GB]2!p! [B,G]4 ^F2 | %52
 G2!f! BA G2 [^D^F]2 | [G,B,E]4 z4 | z!p! c/B/ ce cf d2 | [EGc]2!f! [Gce]2 [Ae]2 [FBd]2 | %56
 [EGc]2 [EGc]2 [^FAd]2 [DGd]2 | [EGc]2 [^FA]2 [DGB]2 [Bd]2 | e2 d2- d2 [Gc]2 | %59
 [Acd]2 [GBf]2 [Gce]2 E2- | G2 G2- G2!p! G2- | G2 G2- G2!f! [EG]2 | [CA]2 [Gc]2 [Fc]2 [EGc]2 | %63
!p! [CA]2 [Gc]2 [Fc]2 [EGc]2 |!f! c4 A2 BG | c2 [FGd]2 [EGc][FAc] cB | c2 c2 d4 | %67
 c4 [Ac][G_B] [GB]2 | [CFA]2 [Ac]2 [G=B]2 [Gcg]2 | [Acd]2 [GBf]2 [Gce]2 [Gc]2 | %70
 [FAc]2 [DGB]2 [CEc]2 [CGc]2 | [FAc]2 [DGB]2 [CEc]2 [CGc]2 | [CFA]2 [DFB]2 [C-Fc-]2 [CGc][EGc] | %73
 [FAc]2 [DGB]2 [EGc]4 |][M:4/4]!f! [CEA]4 [B,D^G]4 | [CEA]4 [D=F=G]4 | [EG]4 [CFA]2 [B,DA]2 | %77
 [B,E^G]4 [CEA]2 [DF=G]2 | Gc [DAd]2 [DGB]2 z G | FA B,[B,DF] [G,CE]2 z [EAc] | %80
 [EB]2 z [DEB] [CEA]2 z [Fc] | [DFB]2 [EB]2 [DAd]2 [FAB]2 | [E^GB]8 |] %83
[M:4/4]!f! [Gce]2 [ceg]2 [Bf]2 [FB]2 | [Gc]2 [Gcg]2 [Ac]2 B2- | B2 c2- [ce][Ac] cB | [EGc]4 [FB]4 | %87
 [Gc]4 c2 fe/d/ | d2 gf ef [Gd]2 |!p! [Gce]2 [ceg]2 [Bf]2 [FB]2 | [Gc]2 [Gcg]2 [Acf]2 fe/d/ | %91
 d2 gf ef [Gd]2 |!f! [EGc]4 [FB]4 | [Gc]4 c2 fe/d/ | d2 ce f2 fe | d2 z g gf z f | fe e2 d2 z d | %97
 dc z G ^F2 GD | BA z [EGA] A2 GB | BA A2 [B,DG]4 | [C^F]4 [DG]4 | G2 cB A2 dc | Bc [DA]2 [B,DG]4 | %103
!p! G=FGE [CFA]2 [CFA]2 | A4 G3 F | G4 [CF]2 [DG][A,EA] | [A,DF]2 GA [B,DG]2 G2 | %107
 [CG]2 z [CEF] FG z [DGd] | [EGc][FAc] [DGc][FGB]!f! [EGc]2 [FB]2 | [Gc]2 [Ad]2 B2 c2- | %110
 c[Ac] cB !fermata![EGc]4 |: [EAc]4 [D^Gd]4 | [EAc]2 [FAB]2 [E^GB]4 | [EAe]4 [FAd]4 | %114
 [D=Gd]4 [EGc]4 | [CFc]4 [DFB]4 | !arpeggio![DEB]4 [CEA]4 | [EAe]2 [FBd]2 [E^GB]4 | %118
!p! [EAe]2 [FBd]2 [E^GB]4 |!f! [EAe]4 [FAd]2 z2 | [FBd]4 [E^GB]4 | [EA]2 z2 [D^G]2 [EA][FB] | %122
 B4 [CEA]4 | [CDA]2 [C^FA]2 [B,DG]4 | [CGc]2 [EGc]2 [CFA]4 |!p! [CGc]2 [EGc]2 [CFA]4 | %126
!f! [CGc]2 [EGc]2 A2 Bc | [DGB]4 c4 | B2 Bc [FGd]2 [FGB]2 | [EGc]2 c2 [FAc]4 | %130
 [DAd]2 [EAc]2 [DGB]2 [FGB]2 | [EGc]4 [EAc]2 [C^Fc]2 | [^D^FB]4 [EB]2 [DFB]2 | %133
 [EGB]4 [^FB]2 [FB^d]2 | [GBe]4 [^Fce]2 [FB^d]2 | [GBe]4 z4 :| %136
V:4
 EFGA x4 | x8 | x2 C2 C2 x A, | B,2 x4 GE | x8 | x2 GB G2 x c | ^F2 x D E2 x F/E/ | ^F2 D2 E2 GF | %8
 x8 | x8 | x8 | x8 | x8 | x2 EC FDB, x | x6 GE | G2 =F2 x4 | x8 | GF x6 | x2 GE [FA]2 [DG] x | %19
 [EG]2 x A A2 G2- | G2 x2 F2 E2- | E2 x6 | [FA]2 [DG] x [EG]4 |][M:2/2] x8 | x G G2 A2 cB | x8 | %26
 x8 | x8 | [A-c]2 [Ac]2 x4 | x8 | x8 | x8 | x8 | x8 | x G- G2 x4 | x6 d2 | B2 x4 D2- | D2 x4 G2- | %38
 G2 x4 D2 | E2 x6 | x8 | x8 | x8 | x6 A2- | A2 A^G [CE]2 x2 | x8 | x8 | x8 | x8 | x2 E2 [CE]2 E^D | %50
 x8 | x6 B,2- | B,2 E2- E2 x2 | x8 | x G- G2 A2 cB | x8 | x8 | x8 | [Ac]2- [Ac]2 [GB]2 x2 | %59
 x6 G2- | E2 D2 E2 E2 | E2 D2 E2 x2 | x8 | x8 | F2 G2 F4 | E2 x4 [DG]2 | [EG]2 E2 F2 G2 | %67
 E2 F2 D2 E2 | x8 | x8 | x8 | x8 | x8 | x8 |][M:4/4] x8 | x8 | x8 | x8 | E2 x5 C | C2 x6 | x8 | %81
 x8 | x8 |][M:4/4] x8 | x4 f2 fe/d/ | d2 gf ef [Gd]2 | x8 | x4 A2 B2- | B2 c2- c[Ac]cB | x8 | %90
 x6 B2- | B2 c2- c[Ac] cB | x8 | x4 A2 B2- | B2 G2 [Ac]2 [FB][Gc] | [GB]2 x B c2 x A | %96
 B2 GA [^FA]2 x G | G2 x c cB B2 | E2 x2 [D^F]2 D2 | G2 G^F x4 | x8 | E2 E2 ^F2 G2- | %102
 G[EG] G^F x4 | C4 x4 | FGFE D2 ED | C2 DE x4 | x2 =C2 x2 CE | x4 D2 x2 | x8 | x4 d2 gf | %110
 ef [Gd]2 x4 |: x8 | x8 | x8 | x8 | x8 | x8 | x8 | x8 | x8 | x8 | x8 | A2 ^G2 x4 | x8 | x8 | x8 | %126
 x4 F3 E | x4 GFGE | F2 F2 x4 | x2 FG x4 | x8 | x8 | x8 | x8 | x8 | x8 :| %136
V:5
 C,D,E,F, E,D,C,G,, | C,2 z C B,2 A,2 | G,=F,E,C, A,2 z D, | G,2 C,2 z F, E,/D,/C,/B,,/ | %4
 A,,F,G,G,, C,2 z C | CD/C/ B,G, E2 z A, | D2 z G, C2 z A, | DCB,G, ECDD, | G,=F,TE,>D, E,2 z C, | %9
 F,2 z D, E,E/D/ CA, | D,D/C/ B,G, C2 z A, | B,A,^G,E, A,2 z A, | ^G,2 =G,2 ^F,2 =F,2 | %13
 E,D,C,A,, D,B,,E,E,, | A,,A,/^G,/ ^F,D, =G,=F,E,C, | A,2- A,/D,/E,/F,/ G,2 z G,, | %16
 C,2 z F, G,2 z E, | A,2 B,2 C2 F,2- | F,2 E,C, F,D,G,G,, | C,2 z C B,2- B,/E,/F,/G,/ | %20
 A,2- A,/D,/E,/F,/ G,2- G,/C,/D,/E,/ | F,2 z F, G,F,E,C, | F,D,G,G,, C,4 |][M:2/2][K:treble] z8 | %24
 z E/D/ EC FDGG, | C2[K:bass] E,2 F,2 G,2 | C,2 C4 B,2 | C2 D2 G,2 G2- | G2 =F4 E2 | F2 G2 C2 E,2 | %30
 F,2 G,2 C,2 E,2 | F,2 G,2 C,2 C2- | C2 B,2 C2 D2 | G,2 z2 z4 | z B,/A,/ B,G, CA,DD, | G,2 G4 ^F2 | %36
 G2 G,4 ^F,2 | G,2 C4 B,2 | C2 C,4 B,,2 | C,4 F,2 D,2 | E,4 C2 ^G,2 | A,2 =G,2 F,2 E,2 | %42
 C2 ^G,2 A,2 z A, | D2 z D EDCA, | DB,EE, A,2 C,2 | D,2 E,2 A,,2 A,2- | A,2 =G,4 F,2- | %47
 F,2 E,2 F,2 G,2 | C,2 z2 A,,2 A,2- | A,G,/^F,/ G,E, A,F,B,B,, | E,2 E4 ^D2 | E2 E,4 ^D,2 | %52
 E,2 G,2 A,2 B,2 | E,4 z4 |[K:treble] z E/D/ EC FDGG, | C2[K:bass] E,2 F,2 G,2 | C,2 C4 B,2 | %57
 C2 D2 G,2 G2- | G2 =F4 E2 | F2 G2 C2 (C,2 | C,2) B,,2 C,2 C2- | C2 B,2 C2 C,2 | F,2 E,2 D,2 C,2 | %63
 F,2 E,2 D,2 C,2 | D,2 E,2 F,2 G,2 | A,2 B,2 CF,G,G,, | C,2 C4 _B,2- | B,2 A,2 _B,2 C2 | %68
 F,2 F4 E2 | F2 G2 C2 E,2 | F,2 G,2 A,2 E,2 | F,2 G,2 A,2 E,2 | F,C,G,C, A,C,E,C, | %73
 F,D,G,G,, C,4 |][M:4/4] A,8 | A,4 B,4 | C4 F,4 | E,4 A,2 B,2 | C2 F,2 G,2 z E, | %79
 A,F,G,G,, C,2 z A, | ^G,2 z G, A,2 z A, | ^G,2 =G,2 F,2 D,2 | E,8 |][M:4/4] CC,CC, DD,DD, | %84
 EE,EE,[K:treble] FE/F/ DE/F/ | GF/G/ EF/G/ AFGG, |[K:bass] CC,CC, DD,DD, | %87
 EE,EE,[K:treble] FE/F/ DE/F/ | GF/G/ EF/G/ AFGG, |[K:bass] CC,CC, DD,DD, | %90
 EE,EE,[K:treble] FE/F/ DE/F/ | GF/G/ EF/G/ AFGG, |[K:bass] CC,CC, DD,DD, | %93
 EE,EE,[K:treble] FE/F/ DE/F/ | G>FE>C F>ED>C | G2 z E AA, z D | GG,[K:bass] CC,DD, z B, | %97
 EE, z A, DD,G,G,, | CC, z C DCB,G, | ECDD, G,G,,G,G,, | A,A,,A,A,, B,B,,B,B,, | %101
 CB,/C/ A,B,/C/ DC/D/ B,C/D/ | ECDD, G,G,/A,/ G,=F, | E,D,E,C, F,G,F,E, | D,E,D,C, B,,B,,C,D, | %105
 E,E,F,G, A,>A,,B,,>^C, | D,D,E,F, G,F,E,=C, | A,2 z A, B,2 z B, | CF,G,G,, CC,DD, | %109
 EE,F(F, B,,)A,,/B,,/ G,,A,,/B,,/ | C,A,,B,,B,,,!p! !fermata!E,,4 |: A,A,,A,A,, B,B,,B,B,, | %112
 CC,DD, EE,DD, | CC,CC, DD,CC, | B,B,,B,B,, CC,B,B,, | A,A,,A,A,, B,B,,A,A,, | %116
 ^G,^G,,G,G,, A,2 A,,2 | CC,DD, EE,DD, | CC,DD, EE,DD, | CC,CC, D2 z2 | D,4 EE,DD, | %121
 CC, z2 B,B,,CD | EDEE, A,A,,=G,=G,, | ^F,2 D,2 G,G,,=F,=F,, | E,2 C,2 F,4 | E,2 C,2 F,4 | %126
 E,2 C,2 F,>E,D,>C, | G,G,,F,F,, E,D,E,C, | D,E,D,C, B,,2 G,,2 | C,2 D,E, (F,4 | F,4) G,2 G,,2 | %131
 C,2 C4 A,2 | B,B,,A,A,, G,2 B,2 | E4 ^D2 B,2 | E4 A,2 B,2 | E,4 z4 :| %136

